def movement():
  while(True):
    movej([-0.5591703098004719, -2.4408614330741987, 2.614241224101978, -2.24259691745567, -0.6787311789204138, -0.438288200914406],a = 0.3,v = 0.3,r = 0.02)
    movej([-0.40002879379025047, -2.2743849053574943, 2.613381342661924, -2.5603391149522725, -0.7655885155546931, -0.2360485863582813],a = 0.3,v = 0.3,r = 0.02)
    movej([-0.2670329257690701, -2.1276272672901833, 2.588928039644454, -2.7800189468070755, -0.8513643490281312, -0.09529858174759287],a = 0.3,v = 0.3,r = 0.02)
    movej([-0.15529308607782033, -2.003488521385746, 2.5510034840112588, -2.93055632955766, -0.9300372842605593, 0.006852833643928413],a = 0.3,v = 0.3,r = 0.02)
    movej([-0.060714169852700506, -1.8979081298592906, 2.505013671015991, -3.0341814930275035, -1.000142006605447, 0.08412212922601547],a = 0.3,v = 0.3,r = 0.02)
    movej([0.019998397202888984, -1.8063614085958992, 2.4537648496274325, -3.1056093335748485, -1.0619502247504924, 0.14465291751173748],a = 0.3,v = 0.3,r = 0.02)
    movej([0.019998397202888984, -1.8063614085958992, 2.4537648496274325, -3.1056093335748485, -1.0619502247504924, 0.14465291751173748],a = 0.3,v = 0.3,r = 0.02)
    movej([0.05407282603349617, -1.7415600490873935, 2.475387442274021, -3.2035822968186856, -1.088498106853548, 0.16893620495203177],a = 0.3,v = 0.3,r = 0.02)
    movej([0.08758047377499456, -1.670958145639906, 2.4926375701711123, -3.301936738114261, -1.1148343055058705, 0.19216309846800783],a = 0.3,v = 0.3,r = 0.02)
    movej([0.12047567949702964, -1.5953247890311903, 2.5052647437224116, -3.3997232168134164, -1.140891411304506, 0.21438662793537322],a = 0.3,v = 0.3,r = 0.02)
    movej([0.15271993156879815, -1.5156757554183367, 2.5130723129353645, -3.4957974013128337, -1.1666102799612215, 0.23565897658987378],a = 0.3,v = 0.3,r = 0.02)
    movej([0.1842815793157474, -1.4332131098915495, 2.5159394476709105, -3.588901872770246, -1.1919397872497524, 0.2560309345454783],a = 0.3,v = 0.3)
    halt
    end
  end
end
