movej([-0.11837197,-1.58941162,1.5891921,0.00021952,1.23489845,3.14159265],a = 0.15,v = 0.15,r = 0.01)
movej([-0.04149997,-1.56391765,1.58265147,-0.01810113,1.53057774,3.14327649717959],a = 0.15,v = 0.15,r = 0.01)
movej([-0.07315197,-1.5367395,1.55698918,0.05365617,1.28702234,3.05611436],a = 0.15,v = 0.15,r = 0.01)
movej([-0.05302367,-1.51016475,1.54035552,0.07979343,1.31102713,3.0157906],a = 0.15,v = 0.15,r = 0.01)
movej([-0.03529921,-1.48410477,1.52408103,0.10570974,1.33282384,2.97682127],a = 0.15,v = 0.15,r = 0.01)
movej([-0.02038088,-1.45901704,1.50872039,0.1314493,1.35197621,2.93892344],a = 0.15,v = 0.15,r = 0.01)
movej([-0.00854576,-1.43529434,1.49480288,0.15699283,1.36820038,2.90178037],a = 0.15,v = 0.15,r = 0.01)
movej([4.658E-05,-1.41324515,1.48279485,0.18227336,1.3813566,2.8650696],a = 0.15,v = 0.15,r = 0.01)
movej([0.00534517,-1.39307801,1.47306457,0.20719852,1.39143805,2.82848682],a = 0.15,v = 0.15,r = 0.01)
movej([0.00217487,-1.3894107,1.49748509,0.17927496,1.38839769,2.82757368],a = 0.15,v = 0.15,r = 0.01)
movej([-0.0041573,-1.38731789,1.52382635,0.15117773,1.38232544,2.82574673],a = 0.15,v = 0.15,r = 0.01)
movej([-0.01350313,-1.3865858,1.5518728,0.12291775,1.37336442,2.8230425],a = 0.15,v = 0.15,r = 0.01)
movej([-0.02562147,-1.38690287,1.58128778,0.09453056,1.36174705,2.8195215],a = 0.15,v = 0.15,r = 0.0
movej([-0.04017604,-1.38788087,1.61164117,0.06606658,1.34779767,2.81526957],a = 0.15,v = 0.15,r = 0.01)
movej([-0.05673557,-1.38907911,1.64244068,0.03758015,1.33193132,2.81039899],a = 0.15,v = 0.15,r = 0.01)
movej([-0.07477757,-1.39003175,1.67316576,0.00911836,1.31465092,2.80504928],a = 0.15,v = 0.15,r = 0.01)
movej([-0.09369523,-1.39027304,1.70329644,-0.01928702,1.29653946,2.79938761],a = 0.15,v = 0.15)
